X: 4
T: CONNAUGHT-MAN'S RAMBLES
R: jig
Z: 2006 John Chambers <jc@trillian.mit.edu>
B: "Rinnci na h-\'Eireann" Elizabeth Burchenal, ed. G.Schirmer (1925) p.130
M: 6/8
L: 1/8
%Q: 3/8=126
%%slurgraces 1
K: D
A/G/ \
| "D"FAA dAA | "D"BAA dAG | "D"FAA dfe | "G"dBB BAG \
| "D"FAA dAA | "G"BA"D"A def | "G"{a}gfe "D"dfe | "Bm"dBB B2 :|
|: g \
| "Bm"fbb "D"faa | "D"fed deg | "Bm"fbb "D"faa | "D"fed "A"e2g \
| "Bm"fbb "D"faa | "D"fed def | "G"gfe "D"dfe | "Bm"dBB B2 :|

%%sep 2 1 500

